static/email.svg

<svg width="19" height="16" viewBox="0 0 19 16" fill="none" xmlns="http://www.w3.org/2000/svg">
<path d="M16.7734 0H2.2265C0.998923 0 -6.10352e-05 1.03538 -6.10352e-05 2.30769V4.21115L8.17105 10.5104C8.56849 10.8165 9.03422 10.97 9.49994 10.97C9.96566 10.97 10.4314 10.8169 10.8288 10.5104L18.9999 4.21115V2.30769C18.9999 1.03538 18.001 0 16.7734 0ZM17.5156 3.43846L9.94302 9.27615C9.67806 9.48038 9.32219 9.48038 9.05722 9.27615L1.48431 3.43846V2.30769C1.48431 1.88346 1.81719 1.53846 2.2265 1.53846H16.7734C17.1827 1.53846 17.5156 1.88346 17.5156 2.30769V3.43846ZM17.5156 7.27308L18.9999 6.12885V13.6923C18.9999 14.9646 18.001 16 16.7734 16H2.2265C0.998923 16 -6.10352e-05 14.9646 -6.10352e-05 13.6923V6.12885L1.48431 7.27308V13.6923C1.48431 14.1165 1.81719 14.4615 2.2265 14.4615H16.7734C17.1827 14.4615 17.5156 14.1165 17.5156 13.6923V7.27308Z" fill="white"/>
</svg>

<svg width="19" height="16" fill="none" xmlns="http://www.w3.org/2000/svg"><path d="M16.773 0H2.227C.998 0 0 1.035 0 2.308V4.21l8.171 6.3c.397.306.863.459 1.329.459a2.17 2.17 0 001.329-.46l8.17-6.299V2.308C19 1.035 18.002 0 16.774 0zm.743 3.438L9.943 9.276a.717.717 0 01-.886 0L1.484 3.438v-1.13c0-.425.333-.77.743-.77h14.546c.41 0 .743.345.743.77v1.13zm0 3.835L19 6.13v7.563C19 14.965 18 16 16.773 16H2.227C.998 16 0 14.965 0 13.692V6.13l1.484 1.144v6.42c0 .424.333.768.743.768h14.546c.41 0 .743-.345.743-.769V7.273z" fill="#fff"/></svg>
